X:1
T:THE DUKE OF GLOUCESTER'S MARCH
T:THE DUKE OF GLOUCESTER'S MARCH
T:Henry Purcell
C:Henry Purcell
%%score 1 2 3
L:1/8
Q:1/2=72
M:2/2
K:F
V:1 treble 
V:2 treble 
V:3 bass 
V:1
|:"A""^Crisply" x8 | f2 e>g f2 c2 | f2 e>g f2 c2 | f>g f>g (Tg3 f/g/) | a2 f4"^," a2 | %5
 c'2 f>a g2 c>f | d2 B>d G2 d>g x8 | e2 c>e d2 =B2 ::"B" c8 | g2 d>f e2 c>e | g2 d>f e2 c2 | %11
 fcdc BAGF | E2 G4"^," Gc | A2 A>d c2 c>e | d2 d>f e2 g>b | a2 f>a g2 e2 :| f8 :| %17
V:2
|: A2 G>B A2 G2 | F2 G>B A2 G2 | F2 C2 D2 E2 | F2 A>B A2"^," c2 | F2 C>F E2 F>A | F2 D>F G2 =B2 | %6
 G2 G2 A2 G>F E2 C>D E>DE>C | E2 G2 G2 A2 :: =B2 B>d c2 E2 | F3 A GFED | C2 EF G2 CE | %11
 F2 F>E F2 F>A | B2 d>B G2 G>E | F2 c2 d2 c>B | !fermata!A2 F>G A>G A>F | x8 :| x8 :| %17
V:3
|:"F" F,,2"C" C,2"F" F,2"C" E,2 |"Dm" D,2"C" C,2"F" F,2"C" E,2 |"Dm" D,2"F" A,,2"Gm" B,,2"C" C,2 | %3
"F" F,2 F,,4"^," G,,>A,, |"F" A,,>G,, A,,>F,,"C" C,2"F" A,,2 |"Bb" B,,4"G" =B,,2 G,,2 | %6
"C" C,2 E,,2"Dm" F,,2"G" G,,2 x8 |"C" C,,8 ::"C" C2"G" =B,2"C" C2"Am" A,2 |"G" G,2 G,,2"C" C,2 C2 | %10
"F" A,2 F,2"Gm" B,2 B,,2 |"C" C,2 C,D, E,D, E,C, |"F" F,2 F,G, A,G, A,F, | %13
"Bb" B,A,"Gm" B,G,"C" CC, E,C, |"F" F,2 A,,2"Gm" B,,2"C" C,2 |"F" F,,8 :| x8 :| %17

